symbols/web/high_quality/materialsymbolsoutlined/high_quality_wght200fill1_48px.svg

<svg xmlns="http://www.w3.org/2000/svg" height="48" width="48"><path d="M13.25 29.45h1.5v-4.2h5.7v4.2H22v-10.9h-1.55v5.15h-5.7v-5.15h-1.5Zm16.4 3.1h1.5v-3.1h1.6q.85 0 1.425-.575.575-.575.575-1.425v-6.9q0-.85-.575-1.425-.575-.575-1.425-.575h-4.6q-.8 0-1.475.575T26 20.55v6.9q0 .85.675 1.425.675.575 1.475.575h1.5Zm-1.5-4.65q-.25 0-.425-.175t-.175-.425v-6.6q0-.25.175-.425t.425-.175h4.45q.25 0 .45.175t.2.425v6.6q0 .25-.2.425t-.45.175ZM8.75 38q-1.15 0-1.95-.8T6 35.25v-22.5q0-1.15.8-1.95t1.95-.8h30.5q1.15 0 1.95.8t.8 1.95v22.5q0 1.15-.8 1.95t-1.95.8Z"/></svg>

<svg xmlns="http://www.w3.org/2000/svg" height="48" width="48"><path d="M13.25 29.45H14.75V25.25H20.45V29.45H22V18.55H20.45V23.7H14.75V18.55H13.25ZM29.65 32.55H31.15V29.45H32.75Q33.6 29.45 34.175 28.875Q34.75 28.3 34.75 27.45V20.55Q34.75 19.7 34.175 19.125Q33.6 18.55 32.75 18.55H28.15Q27.35 18.55 26.675 19.125Q26 19.7 26 20.55V27.45Q26 28.3 26.675 28.875Q27.35 29.45 28.15 29.45H29.65ZM28.15 27.9Q27.9 27.9 27.725 27.725Q27.55 27.55 27.55 27.3V20.7Q27.55 20.45 27.725 20.275Q27.9 20.1 28.15 20.1H32.6Q32.85 20.1 33.05 20.275Q33.25 20.45 33.25 20.7V27.3Q33.25 27.55 33.05 27.725Q32.85 27.9 32.6 27.9ZM8.75 38Q7.6 38 6.8 37.2Q6 36.4 6 35.25V12.75Q6 11.6 6.8 10.8Q7.6 10 8.75 10H39.25Q40.4 10 41.2 10.8Q42 11.6 42 12.75V35.25Q42 36.4 41.2 37.2Q40.4 38 39.25 38Z"/></svg>
